X: 76
T: Miss Fanny Stewart's Strathspey
C:
Q: "Slow"
B: William Shepherd "1st Collection" 1793 p.7 #6
F: http://imslp.org/wiki/File:PMLP73094-Shepherd_Collections_HMT.pdf
C: William Shepherd (17??-1812)
Z: 2012 John Chambers <jc:trillian.mit.edu>
M: C
L: 1/16
K: Bb
B2 |\
B,3D TF2GA B3c {Bc}d3F | G2Tc2c2d2 cded {d}c3B |\
B,3F TF2GA BABc {Bc}d3c | B3GF3E {E}D2B,2B,2 :|
GB |\
f3gf3d TB3c {Bc}d3F | G2cd (ed).c.B  (AB).c.A F2Bd |\
f3g f3d TB3c {Bc}d3c | B2FB (AG).F.E {E}D2B,2B,2 |]
GB |\
f3gf3d TB3c {Bc}d3F | G2cd (ed).c.B  (AB).c.A F2Bd |\
.D2.B2.E2.c2 .F2.d2.G2.e2 | (ed).c.B .A.G.F.E {E}D2B,2B,2 |]
